X: 1057
T: Minuet.
%R: minuet, waltz
B: Henry Playford "Apollo's Banquet", London 1687 (5th Edition)
F: https://archive.org/details/apollosbanquetco01rugg
Z: 2017 John Chambers <jc:trillian.mit.edu>
M: 3/4
L: 1/8
K: C
% - - - - - - - - - -
|:\
e2 f(e/f/) g2 | d2 e2 c2 | d2 B2 c2 | dc de d2 |\
e2 f(e/f/) g2 | d2 e2 c2 | d2 B3(A/B/) | c4 c2 :|
|:\
B2 c(B/c/) d2 | A2 F2 A2 | G2 E2 F2 | GF GA G2 |\
c2 d(c/d/) e2 | A2 B2 G2 | c2 d2 B2 | c4 c2 |]
% - - - - - - - - - -

%%sep 1 1 500
%%sep 1 1 500

